X:51
T: Graf und Nonne (Die Nonne)
N: Q0155x
O: Suedosteuropa, Rumaenien, Siebenbuergen
N: Vorletzten Takt der fuenften und sechsten Zeile gemaess der Taktart
N: rhythmisch korrigiert.
R: Ballade, Standesunterschied, vergebliche Werbung, Liebe, Klage
M: 4/4
L: 1/8
K: G
D2 | G3A_BAG2 | d3cdc
_B2 | c2d2_edc_B | A4z2
d_e | =f_ed2dc_B2 | c3_Bc4 |
B2d2BAG2 | A3GA2
d2 | dc_BAG2F2 | G4z2
d2 | dc_BAG2F2 | G4z2

@@@ Tune index: 1761
